X: 049
M: 6/8
L: 1/8
K: F
cAF cAF | D3 d3 | cBA GAF | F3 E2A/B/ |\
cAF cAF | {E}D3 d3 | cBA GFE | F3- F2 :|
|: A/B/ |\
cdc fga | cdc cAB | cdc fga | cdc cAB |\
cAF cAF | D3 d3 | cBA GFE | F3- F2 :|

